static/img/kroki/08f14b263217497991c2cf5098cc14c9.svg

<?xml version="1.0" encoding="us-ascii" standalone="no"?><svg xmlns="http://www.w3.org/2000/svg" xmlns:xlink="http://www.w3.org/1999/xlink" contentStyleType="text/css" height="152px" preserveAspectRatio="none" style="width:1582px;height:152px;" version="1.1" viewBox="0 0 1582 152" width="1582px" zoomAndPan="magnify"><defs/><g><!--class azure_key_vault--><g id="elem_azure_key_vault"><rect codeLine="23" fill="#3D176E" height="39.7891" id="azure_key_vault" rx="2.5" ry="2.5" style="stroke:#000D19;stroke-width:0.5;" width="179" x="687.5" y="7"/><ellipse cx="702.5" cy="26.8945" fill="#ADD1B2" rx="11" ry="11" style="stroke:#181818;stroke-width:1.0;"/><path d="M705.4688,32.5352 Q704.8906,32.832 704.25,32.9727 Q703.6094,33.1289 702.9063,33.1289 Q700.4063,33.1289 699.0781,31.4883 Q697.7656,29.832 697.7656,26.707 Q697.7656,23.582 699.0781,21.9258 Q700.4063,20.2695 702.9063,20.2695 Q703.6094,20.2695 704.25,20.4258 Q704.9063,20.582 705.4688,20.8789 L705.4688,23.5977 Q704.8438,23.0195 704.25,22.7539 Q703.6563,22.4727 703.0313,22.4727 Q701.6875,22.4727 701,23.5508 Q700.3125,24.6133 700.3125,26.707 Q700.3125,28.8008 701,29.8789 Q701.6875,30.9414 703.0313,30.9414 Q703.6563,30.9414 704.25,30.6758 Q704.8438,30.3945 705.4688,29.8164 L705.4688,32.5352 Z " fill="#000000"/><text fill="#D9B8FF" font-family="Helvetica" font-size="17" lengthAdjust="spacing" textLength="137" x="721.5" y="32.7798">azure_key_vault</text></g><!--class azure_key_vault_key--><g id="elem_azure_key_vault_key"><rect codeLine="26" fill="#3D176E" height="39.7891" id="azure_key_vault_key" rx="2.5" ry="2.5" style="stroke:#000D19;stroke-width:0.5;" width="218" x="7" y="106.79"/><ellipse cx="22" cy="126.6845" fill="#ADD1B2" rx="11" ry="11" style="stroke:#181818;stroke-width:1.0;"/><path d="M24.9688,132.3252 Q24.3906,132.622 23.75,132.7627 Q23.1094,132.9189 22.4063,132.9189 Q19.9063,132.9189 18.5781,131.2783 Q17.2656,129.622 17.2656,126.497 Q17.2656,123.372 18.5781,121.7158 Q19.9063,120.0595 22.4063,120.0595 Q23.1094,120.0595 23.75,120.2158 Q24.4063,120.372 24.9688,120.6689 L24.9688,123.3877 Q24.3438,122.8095 23.75,122.5439 Q23.1563,122.2627 22.5313,122.2627 Q21.1875,122.2627 20.5,123.3408 Q19.8125,124.4033 19.8125,126.497 Q19.8125,128.5908 20.5,129.6689 Q21.1875,130.7314 22.5313,130.7314 Q23.1563,130.7314 23.75,130.4658 Q24.3438,130.1845 24.9688,129.6064 L24.9688,132.3252 Z " fill="#000000"/><text fill="#D9B8FF" font-family="Helvetica" font-size="17" lengthAdjust="spacing" textLength="176" x="41" y="132.5698">azure_key_vault_key</text></g><!--class azure_key_vault_managed_hsm--><g id="elem_azure_key_vault_managed_hsm"><rect codeLine="29" fill="#3D176E" height="39.7891" id="azure_key_vault_managed_hsm" rx="2.5" ry="2.5" style="stroke:#000D19;stroke-width:0.5;" width="311" x="259.5" y="106.79"/><ellipse cx="274.5" cy="126.6845" fill="#ADD1B2" rx="11" ry="11" style="stroke:#181818;stroke-width:1.0;"/><path d="M277.4688,132.3252 Q276.8906,132.622 276.25,132.7627 Q275.6094,132.9189 274.9063,132.9189 Q272.4063,132.9189 271.0781,131.2783 Q269.7656,129.622 269.7656,126.497 Q269.7656,123.372 271.0781,121.7158 Q272.4063,120.0595 274.9063,120.0595 Q275.6094,120.0595 276.25,120.2158 Q276.9063,120.372 277.4688,120.6689 L277.4688,123.3877 Q276.8438,122.8095 276.25,122.5439 Q275.6563,122.2627 275.0313,122.2627 Q273.6875,122.2627 273,123.3408 Q272.3125,124.4033 272.3125,126.497 Q272.3125,128.5908 273,129.6689 Q273.6875,130.7314 275.0313,130.7314 Q275.6563,130.7314 276.25,130.4658 Q276.8438,130.1845 277.4688,129.6064 L277.4688,132.3252 Z " fill="#000000"/><text fill="#D9B8FF" font-family="Helvetica" font-size="17" lengthAdjust="spacing" textLength="269" x="293.5" y="132.5698">azure_key_vault_managed_hsm</text></g><!--class azure_machine_learning_workspace--><g id="elem_azure_machine_learning_workspace"><rect codeLine="32" fill="#3D176E" height="39.7891" id="azure_machine_learning_workspace" rx="2.5" ry="2.5" style="stroke:#000D19;stroke-width:0.5;" width="344" x="605" y="106.79"/><ellipse cx="620" cy="126.6845" fill="#ADD1B2" rx="11" ry="11" style="stroke:#181818;stroke-width:1.0;"/><path d="M622.9688,132.3252 Q622.3906,132.622 621.75,132.7627 Q621.1094,132.9189 620.4063,132.9189 Q617.9063,132.9189 616.5781,131.2783 Q615.2656,129.622 615.2656,126.497 Q615.2656,123.372 616.5781,121.7158 Q617.9063,120.0595 620.4063,120.0595 Q621.1094,120.0595 621.75,120.2158 Q622.4063,120.372 622.9688,120.6689 L622.9688,123.3877 Q622.3438,122.8095 621.75,122.5439 Q621.1563,122.2627 620.5313,122.2627 Q619.1875,122.2627 618.5,123.3408 Q617.8125,124.4033 617.8125,126.497 Q617.8125,128.5908 618.5,129.6689 Q619.1875,130.7314 620.5313,130.7314 Q621.1563,130.7314 621.75,130.4658 Q622.3438,130.1845 622.9688,129.6064 L622.9688,132.3252 Z " fill="#000000"/><text fill="#D9B8FF" font-family="Helvetica" font-size="17" lengthAdjust="spacing" textLength="302" x="639" y="132.5698">azure_machine_learning_workspace</text></g><!--class azure_monitor_diagnostic_settings--><g id="elem_azure_monitor_diagnostic_settings"><rect codeLine="35" fill="#3D176E" height="39.7891" id="azure_monitor_diagnostic_settings" rx="2.5" ry="2.5" style="stroke:#000D19;stroke-width:0.5;" width="332" x="984" y="106.79"/><ellipse cx="999" cy="126.6845" fill="#ADD1B2" rx="11" ry="11" style="stroke:#181818;stroke-width:1.0;"/><path d="M1001.9688,132.3252 Q1001.3906,132.622 1000.75,132.7627 Q1000.1094,132.9189 999.4063,132.9189 Q996.9063,132.9189 995.5781,131.2783 Q994.2656,129.622 994.2656,126.497 Q994.2656,123.372 995.5781,121.7158 Q996.9063,120.0595 999.4063,120.0595 Q1000.1094,120.0595 1000.75,120.2158 Q1001.4063,120.372 1001.9688,120.6689 L1001.9688,123.3877 Q1001.3438,122.8095 1000.75,122.5439 Q1000.1563,122.2627 999.5313,122.2627 Q998.1875,122.2627 997.5,123.3408 Q996.8125,124.4033 996.8125,126.497 Q996.8125,128.5908 997.5,129.6689 Q998.1875,130.7314 999.5313,130.7314 Q1000.1563,130.7314 1000.75,130.4658 Q1001.3438,130.1845 1001.9688,129.6064 L1001.9688,132.3252 Z " fill="#000000"/><text fill="#D9B8FF" font-family="Helvetica" font-size="17" lengthAdjust="spacing" textLength="290" x="1018" y="132.5698">azure_monitor_diagnostic_settings</text></g><!--class azure_web_certificate--><g id="elem_azure_web_certificate"><rect codeLine="38" fill="#3D176E" height="39.7891" id="azure_web_certificate" rx="2.5" ry="2.5" style="stroke:#000D19;stroke-width:0.5;" width="224" x="1351" y="106.79"/><ellipse cx="1366" cy="126.6845" fill="#ADD1B2" rx="11" ry="11" style="stroke:#181818;stroke-width:1.0;"/><path d="M1368.9688,132.3252 Q1368.3906,132.622 1367.75,132.7627 Q1367.1094,132.9189 1366.4063,132.9189 Q1363.9063,132.9189 1362.5781,131.2783 Q1361.2656,129.622 1361.2656,126.497 Q1361.2656,123.372 1362.5781,121.7158 Q1363.9063,120.0595 1366.4063,120.0595 Q1367.1094,120.0595 1367.75,120.2158 Q1368.4063,120.372 1368.9688,120.6689 L1368.9688,123.3877 Q1368.3438,122.8095 1367.75,122.5439 Q1367.1563,122.2627 1366.5313,122.2627 Q1365.1875,122.2627 1364.5,123.3408 Q1363.8125,124.4033 1363.8125,126.497 Q1363.8125,128.5908 1364.5,129.6689 Q1365.1875,130.7314 1366.5313,130.7314 Q1367.1563,130.7314 1367.75,130.4658 Q1368.3438,130.1845 1368.9688,129.6064 L1368.9688,132.3252 Z " fill="#000000"/><text fill="#D9B8FF" font-family="Helvetica" font-size="17" lengthAdjust="spacing" textLength="182" x="1385" y="132.5698">azure_web_certificate</text></g><!--link azure_key_vault to azure_key_vault_key--><g id="link_azure_key_vault_azure_key_vault_key"><path codeLine="41" d="M687.06,41.09 C580.75,56.7 398.48,83.52 242,106.79 C236.53,107.6 236.865,107.5592 231.205,108.3992 " fill="none" id="azure_key_vault-to-azure_key_vault_key" style="stroke:#1A83AF;stroke-width:2.0;"/><polygon fill="#1A83AF" points="225.27,109.28,234.7597,111.9154,230.2158,108.546,233.5853,104.0021,225.27,109.28" style="stroke:#1A83AF;stroke-width:2.0;"/></g><!--link azure_key_vault to azure_key_vault_managed_hsm--><g id="link_azure_key_vault_azure_key_vault_managed_hsm"><path codeLine="42" d="M705.48,47.22 C642.12,64.33 555.8824,87.6252 492.4724,104.7552 " fill="none" id="azure_key_vault-to-azure_key_vault_managed_hsm" style="stroke:#1A83AF;stroke-width:2.0;"/><polygon fill="#1A83AF" points="486.68,106.32,496.4117,107.8344,491.507,105.016,494.3253,100.1112,486.68,106.32" style="stroke:#1A83AF;stroke-width:2.0;"/></g><!--link azure_key_vault to azure_machine_learning_workspace--><g id="link_azure_key_vault_azure_machine_learning_workspace"><path codeLine="43" d="M777,47.22 C777,64.36 777,83.27 777,100.41 " fill="none" id="azure_key_vault-to-azure_machine_learning_workspace" style="stroke:#1A83AF;stroke-width:2.0;"/><polygon fill="#1A83AF" points="777,106.41,781,97.41,777,101.41,773,97.41,777,106.41" style="stroke:#1A83AF;stroke-width:2.0;"/></g><!--link azure_key_vault to azure_monitor_diagnostic_settings--><g id="link_azure_key_vault_azure_monitor_diagnostic_settings"><path codeLine="44" d="M850.69,47.22 C915.98,64.33 1005.0062,87.6682 1070.3362,104.7982 " fill="none" id="azure_key_vault-to-azure_monitor_diagnostic_settings" style="stroke:#1A83AF;stroke-width:2.0;"/><polygon fill="#1A83AF" points="1076.14,106.32,1068.4488,100.1681,1071.3035,105.0518,1066.4198,107.9065,1076.14,106.32" style="stroke:#1A83AF;stroke-width:2.0;"/></g><!--link azure_key_vault to azure_web_certificate--><g id="link_azure_key_vault_azure_web_certificate"><path codeLine="45" d="M866.57,40.51 C976.46,56.01 1168.46,83.16 1333,106.79 C1338.76,107.62 1338.7217,107.6117 1344.6717,108.4717 " fill="none" id="azure_key_vault-to-azure_web_certificate" style="stroke:#1A83AF;stroke-width:2.0;"/><polygon fill="#1A83AF" points="1350.61,109.33,1342.2748,104.0837,1345.6614,108.6147,1341.1304,112.0014,1350.61,109.33" style="stroke:#1A83AF;stroke-width:2.0;"/></g><!--SRC=[bP9FIyD04CNl-HGBFHSQYxQz2B5Gz5B4UXC9a-maMPBibjb9Goj-TnDR9UPFMszXtszctdiaKH85vblUYnpp0CawDbLw2mIvy8XCkJIP8J6A8eYcixQuCfel0cl8KJnYjaDM8RI9rqI5gKPhnKr3Ue0mZSaKMXxNCu6sbOIQ6zGo0sizPb91mTWm8nV1F8hQP7lfQ2hTsHrsC4CIwOHC9XFfBjh8nLDdS_yI6tL0uJPBMnl6ZitEYM_ghCkQQ9Zi1FtH1pq-WvHAn-AsyVPoz4GQwS_x9W5fofgE8BFDCvQHqF1-YyjEAbpCPJJhXP-6O2UignDmA0Zz5FV-3egCnOVZVFPBzTSvEGSDCKe_iNaNoo5Cb4O_Go1TnVDBGsdr5uROmngjs90l5SJQsAfDto9pDMMxS8c17oAnYghI-RIj7MhyDdAz-THRlO_l-sBzRw0Hz9h1uUXNJG-NSSrugnxd2m00]--></g></svg>

<svg xmlns="http://www.w3.org/2000/svg" width="1582" height="152" viewBox="0 0 1582 152"><rect width="179" height="39.789" x="687.5" y="7" fill="#3D176E" rx="2.5" ry="2.5" style="stroke:#000d19;stroke-width:.5"/><circle cx="702.5" cy="26.895" r="11" fill="#ADD1B2" style="stroke:#181818;stroke-width:1"/><path d="M705.469 32.535q-.578.297-1.219.438-.64.156-1.344.156-2.5 0-3.828-1.64-1.312-1.657-1.312-4.782t1.312-4.781q1.328-1.656 3.828-1.656.703 0 1.344.156.656.156 1.219.453v2.719q-.625-.578-1.219-.844-.594-.281-1.219-.281-1.343 0-2.031 1.078-.687 1.062-.687 3.156t.687 3.172q.688 1.062 2.031 1.062.625 0 1.219-.265.594-.281 1.219-.86z"/><text x="721.5" y="32.78" fill="#D9B8FF" font-family="Helvetica" font-size="17" textLength="137">azure_key_vault</text><rect width="218" height="39.789" x="7" y="106.79" fill="#3D176E" rx="2.5" ry="2.5" style="stroke:#000d19;stroke-width:.5"/><circle cx="22" cy="126.684" r="11" fill="#ADD1B2" style="stroke:#181818;stroke-width:1"/><path d="M24.969 132.325q-.578.297-1.219.438-.64.156-1.344.156-2.5 0-3.828-1.64-1.312-1.657-1.312-4.782t1.312-4.781q1.328-1.656 3.828-1.656.703 0 1.344.156.656.156 1.219.453v2.719q-.625-.579-1.219-.844-.594-.281-1.219-.281-1.343 0-2.031 1.078-.687 1.062-.687 3.156t.687 3.172q.688 1.062 2.031 1.062.625 0 1.219-.265.594-.281 1.219-.86z"/><text x="41" y="132.57" fill="#D9B8FF" font-family="Helvetica" font-size="17" textLength="176">azure_key_vault_key</text><rect width="311" height="39.789" x="259.5" y="106.79" fill="#3D176E" rx="2.5" ry="2.5" style="stroke:#000d19;stroke-width:.5"/><circle cx="274.5" cy="126.684" r="11" fill="#ADD1B2" style="stroke:#181818;stroke-width:1"/><path d="M277.469 132.325q-.578.297-1.219.438-.64.156-1.344.156-2.5 0-3.828-1.64-1.312-1.657-1.312-4.782t1.312-4.781q1.328-1.656 3.828-1.656.703 0 1.344.156.656.156 1.219.453v2.719q-.625-.579-1.219-.844-.594-.281-1.219-.281-1.344 0-2.031 1.078-.687 1.062-.687 3.156t.687 3.172q.688 1.062 2.031 1.062.625 0 1.219-.265.594-.281 1.219-.86z"/><text x="293.5" y="132.57" fill="#D9B8FF" font-family="Helvetica" font-size="17" textLength="269">azure_key_vault_managed_hsm</text><rect width="344" height="39.789" x="605" y="106.79" fill="#3D176E" rx="2.5" ry="2.5" style="stroke:#000d19;stroke-width:.5"/><circle cx="620" cy="126.684" r="11" fill="#ADD1B2" style="stroke:#181818;stroke-width:1"/><path d="M622.969 132.325q-.578.297-1.219.438-.64.156-1.344.156-2.5 0-3.828-1.64-1.312-1.657-1.312-4.782t1.312-4.781q1.328-1.656 3.828-1.656.703 0 1.344.156.656.156 1.219.453v2.719q-.625-.579-1.219-.844-.594-.281-1.219-.281-1.343 0-2.031 1.078-.687 1.062-.687 3.156t.687 3.172q.688 1.062 2.031 1.062.625 0 1.219-.265.594-.281 1.219-.86z"/><text x="639" y="132.57" fill="#D9B8FF" font-family="Helvetica" font-size="17" textLength="302">azure_machine_learning_workspace</text><rect width="332" height="39.789" x="984" y="106.79" fill="#3D176E" rx="2.5" ry="2.5" style="stroke:#000d19;stroke-width:.5"/><circle cx="999" cy="126.684" r="11" fill="#ADD1B2" style="stroke:#181818;stroke-width:1"/><path d="M1001.969 132.325q-.578.297-1.219.438-.64.156-1.344.156-2.5 0-3.828-1.64-1.312-1.657-1.312-4.782t1.312-4.781q1.328-1.656 3.828-1.656.703 0 1.344.156.656.156 1.219.453v2.719q-.625-.579-1.219-.844-.594-.281-1.219-.281-1.343 0-2.031 1.078-.687 1.062-.687 3.156t.687 3.172q.688 1.062 2.031 1.062.625 0 1.219-.265.594-.281 1.219-.86z"/><text x="1018" y="132.57" fill="#D9B8FF" font-family="Helvetica" font-size="17" textLength="290">azure_monitor_diagnostic_settings</text><rect width="224" height="39.789" x="1351" y="106.79" fill="#3D176E" rx="2.5" ry="2.5" style="stroke:#000d19;stroke-width:.5"/><circle cx="1366" cy="126.684" r="11" fill="#ADD1B2" style="stroke:#181818;stroke-width:1"/><path d="M1368.969 132.325q-.578.297-1.219.438-.64.156-1.344.156-2.5 0-3.828-1.64-1.312-1.657-1.312-4.782t1.312-4.781q1.328-1.656 3.828-1.656.703 0 1.344.156.656.156 1.219.453v2.719q-.625-.579-1.219-.844-.594-.281-1.219-.281-1.343 0-2.031 1.078-.687 1.062-.687 3.156t.687 3.172q.688 1.062 2.031 1.062.625 0 1.219-.265.594-.281 1.219-.86z"/><text x="1385" y="132.57" fill="#D9B8FF" font-family="Helvetica" font-size="17" textLength="182">azure_web_certificate</text><path fill="none" d="M687.06 41.09C580.75 56.7 398.48 83.52 242 106.79c-5.47.81-5.135.77-10.795 1.61" style="stroke:#1a83af;stroke-width:2"/><path fill="#1A83AF" d="m225.27 109.28 9.49 2.635-4.544-3.369 3.37-4.544z" style="stroke:#1a83af;stroke-width:2"/><path fill="none" d="M705.48 47.22c-63.36 17.11-149.598 40.405-213.008 57.535" style="stroke:#1a83af;stroke-width:2"/><path fill="#1A83AF" d="m486.68 106.32 9.732 1.514-4.905-2.818 2.818-4.905z" style="stroke:#1a83af;stroke-width:2"/><path fill="none" d="M777 47.22v53.19" style="stroke:#1a83af;stroke-width:2"/><path fill="#1A83AF" d="m777 106.41 4-9-4 4-4-4z" style="stroke:#1a83af;stroke-width:2"/><path fill="none" d="M850.69 47.22c65.29 17.11 154.316 40.448 219.646 57.578" style="stroke:#1a83af;stroke-width:2"/><path fill="#1A83AF" d="m1076.14 106.32-7.691-6.152 2.854 4.884-4.883 2.854z" style="stroke:#1a83af;stroke-width:2"/><path fill="none" d="M866.57 40.51c109.89 15.5 301.89 42.65 466.43 66.28 5.76.83 5.722.822 11.672 1.682" style="stroke:#1a83af;stroke-width:2"/><path fill="#1A83AF" d="m1350.61 109.33-8.335-5.246 3.386 4.53-4.53 3.387z" style="stroke:#1a83af;stroke-width:2"/></svg>
